flaticon/security/key.svg

<svg xmlns="http://www.w3.org/2000/svg" width="32" height="32" viewBox="0 0 24 24">
    <path d="M 23.648438 19.210938 L 14.339844 10.335938 C 15.71875 7.363281 15.289062 4.347656 13.164062 2.226562 C 11.667969 0.726562 9.589844 -0.0898438 7.476562 0.0078125 C 5.328125 0.0976562 3.378906 1.058594 1.980469 2.707031 C -0.550781 5.707031 -0.339844 10.226562 2.460938 12.996094 C 4.417969 14.925781 7.171875 15.570312 9.882812 14.734375 L 10.953125 15.828125 C 11.035156 15.910156 11.148438 15.960938 11.269531 15.960938 L 13.070312 15.960938 L 13.070312 17.300781 C 13.070312 17.546875 13.269531 17.746094 13.515625 17.746094 L 14.855469 17.746094 L 14.855469 19.085938 C 14.855469 19.332031 15.054688 19.535156 15.300781 19.535156 L 17.089844 19.535156 L 17.089844 21.320312 C 17.089844 21.566406 17.289062 21.765625 17.535156 21.765625 L 18.429688 21.765625 L 18.429688 22.558594 C 18.429688 22.992188 18.464844 23.230469 18.804688 23.570312 C 19.054688 23.820312 19.382812 23.972656 19.769531 24 L 23.339844 24 C 23.585938 24 23.789062 23.800781 23.789062 23.554688 L 23.789062 19.535156 C 23.789062 19.410156 23.738281 19.292969 23.648438 19.210938 Z M 22.894531 23.105469 L 19.800781 23.109375 C 19.664062 23.097656 19.535156 23.039062 19.4375 22.941406 C 19.320312 22.824219 19.320312 22.824219 19.320312 22.558594 L 19.320312 21.320312 C 19.320312 21.074219 19.121094 20.875 18.875 20.875 L 17.980469 20.875 L 17.980469 19.085938 C 17.980469 18.839844 17.78125 18.640625 17.535156 18.640625 L 15.75 18.640625 L 15.75 17.300781 C 15.75 17.054688 15.546875 16.855469 15.300781 16.855469 L 13.960938 16.855469 L 13.960938 15.515625 C 13.960938 15.265625 13.761719 15.066406 13.515625 15.066406 L 11.457031 15.066406 L 10.324219 13.914062 C 10.207031 13.789062 10.023438 13.746094 9.863281 13.804688 C 7.394531 14.652344 4.863281 14.113281 3.089844 12.359375 C 0.617188 9.917969 0.429688 5.929688 2.664062 3.285156 C 3.898438 1.828125 5.617188 0.980469 7.511719 0.898438 C 9.382812 0.824219 11.210938 1.535156 12.53125 2.855469 C 14.472656 4.792969 14.785156 7.484375 13.398438 10.234375 C 13.308594 10.410156 13.34375 10.625 13.488281 10.757812 L 22.894531 19.726562 Z M 22.894531 23.105469"/>
    <path d="M 4.007812 3.804688 C 3.5 4.308594 3.222656 4.984375 3.222656 5.699219 C 3.222656 6.414062 3.5 7.085938 4.007812 7.59375 C 4.511719 8.097656 5.183594 8.378906 5.902344 8.378906 C 6.617188 8.378906 7.289062 8.097656 7.796875 7.59375 C 8.300781 7.085938 8.582031 6.414062 8.582031 5.699219 C 8.582031 4.984375 8.300781 4.308594 7.796875 3.804688 C 6.75 2.757812 5.050781 2.757812 4.007812 3.804688 Z M 7.164062 6.960938 C 6.488281 7.636719 5.3125 7.636719 4.636719 6.960938 C 4.300781 6.625 4.113281 6.175781 4.113281 5.699219 C 4.113281 5.222656 4.300781 4.773438 4.636719 4.433594 C 4.984375 4.085938 5.445312 3.914062 5.902344 3.914062 C 6.359375 3.914062 6.816406 4.085938 7.164062 4.433594 C 7.503906 4.773438 7.6875 5.222656 7.6875 5.699219 C 7.6875 6.175781 7.503906 6.625 7.164062 6.960938 Z M 7.164062 6.960938"/>
</svg>

<svg xmlns="http://www.w3.org/2000/svg" width="32" height="32" viewBox="0 0 24 24">
    <path d="M23.648 19.21l-9.308-8.874c1.379-2.973.95-5.988-1.176-8.11A7.575 7.575 0 0 0 7.477.009c-2.149.09-4.098 1.05-5.497 2.699-2.53 3-2.32 7.52.48 10.29 1.958 1.929 4.712 2.573 7.423 1.737l1.07 1.094a.45.45 0 0 0 .317.133h1.8v1.34c0 .246.2.445.446.445h1.34v1.34c0 .246.199.45.445.45h1.789v1.784c0 .246.2.446.445.446h.895v.793c0 .433.035.671.375 1.011.25.25.578.403.965.43h3.57c.246 0 .45-.2.45-.445v-4.02a.437.437 0 0 0-.142-.324zm-.753 3.895l-3.094.004a.583.583 0 0 1-.363-.168c-.118-.117-.118-.117-.118-.382V21.32c0-.246-.199-.445-.445-.445h-.895v-1.79c0-.245-.199-.444-.445-.444H15.75V17.3a.448.448 0 0 0-.45-.446h-1.34v-1.34c0-.25-.198-.449-.444-.449h-2.059l-1.133-1.152a.432.432 0 0 0-.46-.11c-2.47.848-5 .31-6.774-1.445C.617 9.918.43 5.93 2.664 3.285A6.667 6.667 0 0 1 7.512.898a6.734 6.734 0 0 1 5.02 1.957c1.94 1.938 2.253 4.63.866 7.38a.44.44 0 0 0 .09.523l9.407 8.969zm0 0"/>
    <path d="M4.008 3.805a2.653 2.653 0 0 0-.785 1.894c0 .715.277 1.387.785 1.895a2.676 2.676 0 0 0 3.79 0 2.676 2.676 0 0 0-.001-3.79 2.678 2.678 0 0 0-3.79 0zM7.164 6.96c-.676.676-1.851.676-2.527 0a1.776 1.776 0 0 1-.524-1.262 1.786 1.786 0 0 1 1.79-1.785A1.777 1.777 0 0 1 7.687 5.7c0 .477-.184.926-.524 1.262zm0 0"/>
</svg>
